src/assets/icons/animals.svg

<?xml version="1.0" encoding="UTF-8"?>
<svg width="28px" height="29px" viewBox="0 0 28 29" version="1.1" xmlns="http://www.w3.org/2000/svg" xmlns:xlink="http://www.w3.org/1999/xlink">
    <!-- Generator: sketchtool 41.2 (35397) - http://www.bohemiancoding.com/sketch -->
    <title>AC958B0B-1B1D-461B-94B6-1FF0EBAE40E0</title>
    <desc>Created with sketchtool.</desc>
    <defs></defs>
    <g id="Report" stroke="none" stroke-width="1" fill="none" fill-rule="evenodd">
        <g id="MVP-1.3---Report--Listing" transform="translate(-724.000000, -464.000000)" fill="#333333">
            <g id="Overlay-Report-Listing" transform="translate(97.000000, 186.000000)">
                <g id="Group" transform="translate(461.000000, 262.000000)">
                    <path d="M191.908012,23.0206901 C192.795944,22.2934507 193.31926,21.1845315 193.31926,19.9470584 C193.31926,17.770744 191.548516,16 189.371917,16 C187.692469,16 186.239413,17.0671108 185.675425,18.6009403 C184.980893,18.4538997 184.226919,18.3819437 183.393879,18.3819437 L176.82398,18.3819437 C175.991793,18.3819437 175.236966,18.4533309 174.539305,18.598665 C173.973043,17.0807625 172.521123,16.0247438 170.845657,16.0247438 C168.669343,16.0247438 166.898883,17.7897996 166.898883,19.9592881 C166.898883,21.135044 167.38352,22.2081274 168.206606,22.9365044 C167.174193,24.5385926 166.632674,26.3306675 166.632674,28.1682482 L166.632674,36.778228 C166.632674,40.2602742 169.433271,43.1106431 172.93352,43.261381 C173.641419,43.7042092 175.412448,44.298913 179.817408,44.298913 C184.544891,44.298913 186.532072,43.5930044 187.201291,43.2642251 C190.67708,43.1479009 193.367326,40.3410469 193.367326,36.778228 L193.367326,28.1682482 C193.367326,26.3613839 192.86534,24.5988878 191.908012,23.0206901 Z M191.660859,36.778228 C191.660859,39.4605099 189.603428,41.5611709 186.976891,41.5611709 C186.879053,41.5611709 186.790033,41.5751071 186.705278,41.6032638 C186.628203,41.5805109 186.548283,41.5642995 186.464097,41.5642995 C183.55002,41.5642995 181.143902,39.1974296 180.818535,36.1607713 C181.34299,35.9770417 181.77046,35.617546 182.019319,35.1229549 L182.921756,33.3718352 C183.280967,32.669624 183.248829,31.8152528 182.837286,31.1417671 C182.42233,30.4640153 181.681439,30.0428023 180.903859,30.0428023 L178.992616,30.0428023 C178.200815,30.0428023 177.453098,30.4716944 177.042124,31.1673641 C176.634562,31.8564924 176.620911,32.7165519 177.006003,33.4164878 L177.959634,35.1488363 C178.137676,35.479891 178.392508,35.7438245 178.695975,35.9372241 C178.470721,39.0367372 176.083942,41.4900681 173.155076,41.557758 C170.53764,41.5187937 168.339141,39.3478831 168.339141,36.778228 L168.339141,28.1682482 C168.339141,26.4239544 168.940387,24.7203314 170.078031,23.2416776 C170.233604,23.0394613 170.290487,22.7783718 170.23332,22.5297964 C170.175869,22.281221 170.010342,22.0713256 169.781959,21.9578455 C169.04505,21.5909551 168.60535,20.8438069 168.60535,19.9592881 C168.60535,18.7309162 169.610459,17.7312109 170.845657,17.7312109 C171.981311,17.7312109 172.935511,18.5915547 173.069468,19.7331812 L173.047284,19.8350004 L173.028797,19.9328379 C173.017421,19.9800501 173.006045,20.0264092 172.995237,20.071915 C172.98386,20.1177052 172.973053,20.1629265 172.962245,20.2070103 L172.958263,20.2235061 L172.956273,20.231754 L172.955988,20.2337449 C172.955135,20.2417084 172.96253,20.1686148 172.959117,20.1999 L172.958832,20.2004688 L172.957695,20.2030285 L172.947456,20.2235061 L172.928116,20.2633237 C172.905363,20.3139489 172.884032,20.3617299 172.864123,20.4058137 C172.8536,20.4396586 172.816058,20.5079173 172.787048,20.5619554 C172.758038,20.6159935 172.73301,20.6632058 172.712248,20.7021701 C172.670724,20.7798144 172.647118,20.8241825 172.647118,20.8241825 C172.605594,20.9029644 172.573455,20.9928384 172.557812,21.0849876 C172.47704,21.5556881 172.793021,22.0022137 173.263437,22.0829864 C173.733853,22.1637592 174.180663,21.847494 174.261151,21.3770779 C174.261151,21.3770779 174.269399,21.3275903 174.284188,21.2405605 C174.291867,21.19733 174.300115,21.1444295 174.310639,21.0841344 C174.320593,21.0232704 174.332254,20.9638284 174.342777,20.8494951 C174.351594,20.7473915 174.358989,20.6367556 174.369227,20.5195782 L174.370365,20.4319795 L174.366383,20.4049604 C175.085375,20.1956338 175.888836,20.0884108 176.82398,20.0884108 L183.393879,20.0884108 C184.386474,20.0884108 185.229753,20.2067259 185.97235,20.444778 L185.977185,20.5195782 C185.987424,20.6367556 185.997094,20.7473915 186.006195,20.8494951 C186.016719,20.9638284 186.029233,21.0232704 186.039472,21.0841344 C186.04971,21.1444295 186.058811,21.19733 186.066206,21.2405605 C186.080996,21.3275903 186.089528,21.3770779 186.089528,21.3770779 C186.105171,21.4646765 186.134749,21.5554037 186.178833,21.6378829 C186.403802,22.0590959 186.927403,22.2183662 187.348332,21.9936813 C187.769545,21.7689965 187.928815,21.2453955 187.70413,20.8241825 C187.70413,20.8241825 187.68024,20.7798144 187.639,20.7021701 C187.618238,20.6632058 187.592925,20.6159935 187.5642,20.5619554 C187.53519,20.5079173 187.497648,20.4396586 187.48684,20.4058137 C187.467216,20.3617299 187.4456,20.3139489 187.422848,20.2633237 L187.403792,20.2235061 L187.393553,20.2030285 L187.392416,20.2004688 L187.391847,20.1999 C187.388718,20.1686148 187.396113,20.2417084 187.39526,20.2337449 L187.394691,20.231754 L187.3927,20.2235061 L187.388718,20.2070103 C187.377911,20.1629265 187.367103,20.1177052 187.356011,20.071915 C187.344919,20.0264092 187.333827,19.9800501 187.32245,19.9328379 L187.303679,19.8350004 L187.281495,19.7317592 L187.271825,19.6114532 C187.261871,19.5298272 187.259027,19.447348 187.263577,19.3660064 C187.262724,19.3142436 187.269266,19.2650404 187.273532,19.214984 C187.594916,18.3372911 188.431938,17.7064671 189.371917,17.7064671 C190.607684,17.7064671 191.612793,18.7118607 191.612793,19.9470584 C191.612793,20.8574586 191.13356,21.639305 190.362237,21.9882775 C190.127882,22.0937941 189.954107,22.2997078 189.888693,22.5479987 C189.822994,22.7965741 189.872766,23.0613609 190.024072,23.2686967 C191.09488,24.735974 191.660859,26.429927 191.660859,28.1682482 L191.660859,36.778228 Z M172.785142,26.6213642 C171.828952,26.6213642 171.053931,27.3963847 171.053931,28.3525751 C171.053931,29.3087655 171.828952,30.0840704 172.785142,30.0840704 C173.741333,30.0840704 174.516353,29.3087655 174.516353,28.3525751 C174.516353,27.3963847 173.741333,26.6213642 172.785142,26.6213642 Z M187.361728,26.336953 C186.405537,26.336953 185.630517,27.1119735 185.630517,28.0681639 C185.630517,29.0243543 186.405537,29.7996592 187.361728,29.7996592 C188.317918,29.7996592 189.092938,29.0243543 189.092938,28.0681639 C189.092938,27.1119735 188.317918,26.336953 187.361728,26.336953 Z M179.47327,34.3487877 L178.501722,32.6016498 C178.407013,32.4298654 178.410426,32.2091623 178.511107,32.0393688 C178.614918,31.8633183 178.804051,31.7492694 178.992616,31.7492694 L180.903859,31.7492694 C181.09157,31.7492694 181.276437,31.8579145 181.383092,32.0322586 C181.48548,32.1992079 181.49515,32.4204798 181.406129,32.5951083 L180.504261,34.3649991 C180.405855,34.5603896 180.193968,34.6093083 180.046643,34.6186939 C180.006541,34.6130057 179.966439,34.6064642 179.924631,34.6064642 C179.919512,34.6064642 179.914677,34.6078863 179.909557,34.6081707 C179.78527,34.584849 179.565989,34.5214253 179.47327,34.3487877 Z M179.817408,42.5924459 C178.354397,42.5924459 177.231257,42.5224807 176.374326,42.4237901 C177.855824,41.6265855 179.050351,40.3180096 179.748296,38.7187655 C180.452214,40.3316614 181.660677,41.6487696 183.159524,42.4439833 C182.270739,42.5324351 181.171205,42.5924459 179.817408,42.5924459 Z" id="report_animals"></path>
                </g>
            </g>
        </g>
    </g>
</svg>

<svg width="28" height="29" viewBox="0 0 28 29" xmlns="http://www.w3.org/2000/svg"><g id="Report" fill="none" fill-rule="evenodd"><g id="MVP-1.3---Report--Listing" transform="translate(-724 -464)" fill="#333"><g id="Overlay-Report-Listing" transform="translate(97 186)"><g id="Group" transform="translate(461 262)"><path d="M191.908 23.02c.888-.727 1.411-1.835 1.411-3.073A3.952 3.952 0 0 0 189.372 16c-1.68 0-3.133 1.067-3.697 2.6a10.984 10.984 0 0 0-2.281-.218h-6.57c-.832 0-1.587.071-2.285.217a3.947 3.947 0 0 0-3.693-2.574 3.945 3.945 0 0 0-3.947 3.934c0 1.176.485 2.25 1.308 2.978-1.033 1.602-1.574 3.394-1.574 5.231v8.61c0 3.482 2.8 6.333 6.3 6.483.708.443 2.48 1.038 6.884 1.038 4.728 0 6.715-.706 7.384-1.035 3.476-.116 6.166-2.923 6.166-6.486v-8.61c0-1.807-.502-3.57-1.459-5.147zm-.247 13.758c0 2.683-2.058 4.783-4.684 4.783a.85.85 0 0 0-.272.042.848.848 0 0 0-.24-.039c-2.915 0-5.321-2.367-5.646-5.403a2.1 2.1 0 0 0 1.2-1.038l.903-1.751a2.29 2.29 0 0 0-2.018-3.329h-1.911a2.28 2.28 0 0 0-1.987 3.373l.954 1.733c.178.33.433.595.736.788-.225 3.1-2.612 5.553-5.54 5.62-2.618-.038-4.817-2.21-4.817-4.779v-8.61c0-1.744.601-3.448 1.739-4.926a.854.854 0 0 0-.296-1.284c-.737-.367-1.177-1.114-1.177-1.999a2.237 2.237 0 0 1 2.24-2.228c1.136 0 2.09.86 2.224 2.002l-.022.102-.018.098-.034.139-.033.135-.004.017-.002.008v.002c0 .008.007-.065.003-.034l-.001.003-.01.02-.02.04-.064.143c-.01.034-.048.102-.077.156l-.075.14-.065.122a.864.864 0 1 0 1.614.553l.023-.136.027-.157c.01-.06.021-.12.032-.235l.026-.33.001-.087-.004-.027c.72-.21 1.523-.317 2.458-.317h6.57c.992 0 1.836.119 2.578.357l.005.075.03.33c.01.114.022.173.032.234l.027.157.024.136a.865.865 0 1 0 1.615-.553s-.025-.044-.066-.122l-.075-.14c-.029-.054-.066-.122-.077-.156l-.064-.143-.02-.04-.01-.02V20.2h-.001l.003.034v-.002l-.002-.008-.004-.017-.033-.135-.034-.14-.018-.097-.023-.103-.01-.12a1.39 1.39 0 0 1-.007-.246c-.001-.052.005-.101.01-.151.32-.878 1.158-1.509 2.098-1.509a2.243 2.243 0 0 1 2.24 2.241c0 .91-.478 1.692-1.25 2.041a.852.852 0 0 0-.338 1.28c1.07 1.468 1.637 3.162 1.637 4.9v8.61zm-18.876-10.157a1.731 1.731 0 1 0 0 3.463 1.731 1.731 0 0 0 0-3.463zm14.577-.284a1.731 1.731 0 1 0 0 3.462 1.731 1.731 0 0 0 0-3.462zm-7.889 8.012l-.971-1.747a.578.578 0 0 1 .49-.852h1.912c.188 0 .372.108.48.282a.588.588 0 0 1 .022.563l-.902 1.77c-.098.195-.31.244-.457.254-.04-.006-.08-.013-.122-.013l-.015.002c-.125-.023-.344-.087-.437-.26zm.344 8.243c-1.463 0-2.586-.07-3.443-.168 1.482-.797 2.676-2.106 3.374-3.705.704 1.613 1.913 2.93 3.412 3.725-.89.088-1.989.148-3.343.148z" id="report_animals"/></g></g></g></g></svg>
